assets/images/banner-logo2.svg

<svg width="117" height="24" viewBox="0 0 117 24" fill="none" xmlns="http://www.w3.org/2000/svg">
<g clip-path="url(#clip0_11_110)">
<path d="M6.09537 11.7259C9.33338 11.7259 11.9583 9.10096 11.9583 5.86294C11.9583 2.62493 9.33338 0 6.09537 0C2.85735 0 0.232422 2.62493 0.232422 5.86294C0.232422 9.10096 2.85735 11.7259 6.09537 11.7259Z" fill="#3C2769"/>
<path d="M6.09537 23.4518C9.33338 23.4518 11.9583 20.8268 11.9583 17.5888C11.9583 14.3508 9.33338 11.7259 6.09537 11.7259C2.85735 11.7259 0.232422 14.3508 0.232422 17.5888C0.232422 20.8268 2.85735 23.4518 6.09537 23.4518Z" fill="#3C2769"/>
<path d="M31.1885 16.4995H39.0495V14.3589H33.7848V4.21936H31.1885V16.4995Z" fill="#3C2769"/>
<path d="M44.3758 16.6794C47.17 16.6794 48.909 14.7666 48.909 11.9305C48.909 9.07623 47.17 7.16943 44.3758 7.16943C41.5817 7.16943 39.8428 9.07623 39.8428 11.9305C39.8428 14.7666 41.5817 16.6794 44.3758 16.6794ZM44.3877 14.7007C43.0986 14.7007 42.4391 13.5194 42.4391 11.9125C42.4391 10.3055 43.0986 9.11821 44.3877 9.11821C45.653 9.11821 46.3127 10.3055 46.3127 11.9125C46.3127 13.5194 45.653 14.7007 44.3877 14.7007Z" fill="#3C2769"/>
<path d="M54.2127 20.1452C56.8452 20.1452 58.7159 18.946 58.7159 16.5895V7.28937H56.1796V8.83639H56.0837C55.7418 8.08687 54.9922 7.16943 53.4512 7.16943C51.4306 7.16943 49.7217 8.74044 49.7217 11.8765C49.7217 14.9405 51.3825 16.3676 53.4573 16.3676C54.9263 16.3676 55.7478 15.6301 56.0837 14.8686H56.1916V16.5535C56.1916 17.8187 55.382 18.3104 54.2727 18.3104C53.1454 18.3104 52.5758 17.8187 52.3659 17.2611L50.0036 17.5789C50.3094 19.0299 51.7303 20.1452 54.2127 20.1452ZM54.2669 14.4488C53.0136 14.4488 52.33 13.4535 52.33 11.8645C52.33 10.2995 53.0016 9.20214 54.2669 9.20214C55.5079 9.20214 56.2035 10.2515 56.2035 11.8645C56.2035 13.4895 55.496 14.4488 54.2669 14.4488Z" fill="#3C2769"/>
<path d="M64.4031 16.6794C67.1974 16.6794 68.9363 14.7666 68.9363 11.9305C68.9363 9.07623 67.1974 7.16943 64.4031 7.16943C61.6088 7.16943 59.8701 9.07623 59.8701 11.9305C59.8701 14.7666 61.6088 16.6794 64.4031 16.6794ZM64.4151 14.7007C63.1259 14.7007 62.4665 13.5194 62.4665 11.9125C62.4665 10.3055 63.1259 9.11821 64.4151 9.11821C65.6803 9.11821 66.34 10.3055 66.34 11.9125C66.34 13.5194 65.6803 14.7007 64.4151 14.7007Z" fill="#3C2769"/>
<path d="M70.091 16.4995H72.6454V7.28937H70.091V16.4995ZM71.3743 6.10212C72.1358 6.10212 72.7594 5.5205 72.7594 4.80695C72.7594 4.09939 72.1358 3.51776 71.3743 3.51776C70.6187 3.51776 69.9951 4.09939 69.9951 4.80695C69.9951 5.5205 70.6187 6.10212 71.3743 6.10212Z" fill="#3C2769"/>
<path d="M74.1846 19.9534H76.7389V15.0245H76.817C77.1707 15.792 77.9441 16.6494 79.4312 16.6494C81.5299 16.6494 83.1668 14.9885 83.1668 11.9065C83.1668 8.74045 81.4579 7.16943 79.4373 7.16943C77.8963 7.16943 77.1587 8.08687 76.817 8.83639H76.7031V7.28937H74.1846V19.9534ZM76.685 11.8945C76.685 10.2515 77.3806 9.20214 78.6219 9.20214C79.8871 9.20214 80.5585 10.2995 80.5585 11.8945C80.5585 13.5014 79.8749 14.6167 78.6219 14.6167C77.3925 14.6167 76.685 13.5374 76.685 11.8945Z" fill="#3C2769"/>
<path d="M92.027 9.91571C91.799 8.21878 90.432 7.16943 88.1054 7.16943C85.7489 7.16943 84.196 8.26074 84.2018 10.0356C84.196 11.4148 85.0653 12.3082 86.8643 12.668L88.4593 12.9858C89.2627 13.1477 89.6286 13.4415 89.6405 13.9032C89.6286 14.4488 89.0348 14.8386 88.1415 14.8386C87.2299 14.8386 86.6244 14.4488 86.4684 13.6993L83.9561 13.8312C84.196 15.5941 85.695 16.6794 88.1354 16.6794C90.5219 16.6794 92.2308 15.4622 92.2369 13.6454C92.2308 12.3142 91.3614 11.5167 89.5744 11.1509L87.9074 10.8152C87.05 10.6293 86.7323 10.3355 86.7384 9.89172C86.7323 9.34006 87.3559 8.98029 88.1474 8.98029C89.0348 8.98029 89.5624 9.46597 89.6884 10.0596L92.027 9.91571Z" fill="#3C2769"/>
<path d="M99.2452 12.578C99.2513 13.8132 98.4056 14.4608 97.4884 14.4608C96.5229 14.4608 95.8993 13.7832 95.8932 12.6979V7.28937H93.3389V13.1536C93.345 15.3063 94.6041 16.6194 96.457 16.6194C97.8421 16.6194 98.8374 15.9059 99.2513 14.8266H99.3472V16.4995H101.8V7.28937H99.2452V12.578Z" fill="#3C2769"/>
<path d="M103.336 16.4995H105.891V10.9711C105.891 9.95168 106.538 9.27411 107.39 9.27411C108.229 9.27411 108.793 9.84974 108.793 10.7552V16.4995H111.269V10.8751C111.269 9.92169 111.815 9.27411 112.744 9.27411C113.559 9.27411 114.171 9.78379 114.171 10.8092V16.4995H116.72V10.3055C116.72 8.30872 115.532 7.16943 113.817 7.16943C112.468 7.16943 111.419 7.85901 111.041 8.91434H110.945C110.651 7.847 109.71 7.16943 108.445 7.16943C107.204 7.16943 106.262 7.82901 105.878 8.91434H105.77V7.28937H103.336V16.4995Z" fill="#3C2769"/>
<path d="M23.6839 0H11.958V11.7259H23.6839V0Z" fill="#3C2769"/>
<path d="M11.958 11.7259H23.6839L11.958 23.4518V11.7259Z" fill="#3C2769"/>
<path d="M31.1885 16.4995H39.0495V14.3589H33.7848V4.21936H31.1885V16.4995Z" fill="#3C2769"/>
<path d="M44.3758 16.6794C47.17 16.6794 48.909 14.7666 48.909 11.9305C48.909 9.07623 47.17 7.16943 44.3758 7.16943C41.5817 7.16943 39.8428 9.07623 39.8428 11.9305C39.8428 14.7666 41.5817 16.6794 44.3758 16.6794ZM44.3877 14.7007C43.0986 14.7007 42.4391 13.5194 42.4391 11.9125C42.4391 10.3055 43.0986 9.11821 44.3877 9.11821C45.653 9.11821 46.3127 10.3055 46.3127 11.9125C46.3127 13.5194 45.653 14.7007 44.3877 14.7007Z" fill="#3C2769"/>
<path d="M54.2127 20.1452C56.8452 20.1452 58.7159 18.946 58.7159 16.5895V7.28937H56.1796V8.83639H56.0837C55.7418 8.08687 54.9922 7.16943 53.4512 7.16943C51.4306 7.16943 49.7217 8.74044 49.7217 11.8765C49.7217 14.9405 51.3825 16.3676 53.4573 16.3676C54.9263 16.3676 55.7478 15.6301 56.0837 14.8686H56.1916V16.5535C56.1916 17.8187 55.382 18.3104 54.2727 18.3104C53.1454 18.3104 52.5758 17.8187 52.3659 17.2611L50.0036 17.5789C50.3094 19.0299 51.7303 20.1452 54.2127 20.1452ZM54.2669 14.4488C53.0136 14.4488 52.33 13.4535 52.33 11.8645C52.33 10.2995 53.0016 9.20214 54.2669 9.20214C55.5079 9.20214 56.2035 10.2515 56.2035 11.8645C56.2035 13.4895 55.496 14.4488 54.2669 14.4488Z" fill="#3C2769"/>
<path d="M64.4031 16.6794C67.1974 16.6794 68.9363 14.7666 68.9363 11.9305C68.9363 9.07623 67.1974 7.16943 64.4031 7.16943C61.6088 7.16943 59.8701 9.07623 59.8701 11.9305C59.8701 14.7666 61.6088 16.6794 64.4031 16.6794ZM64.4151 14.7007C63.1259 14.7007 62.4665 13.5194 62.4665 11.9125C62.4665 10.3055 63.1259 9.11821 64.4151 9.11821C65.6803 9.11821 66.34 10.3055 66.34 11.9125C66.34 13.5194 65.6803 14.7007 64.4151 14.7007Z" fill="#3C2769"/>
<path d="M70.091 16.4995H72.6454V7.28937H70.091V16.4995ZM71.3743 6.10212C72.1358 6.10212 72.7594 5.5205 72.7594 4.80695C72.7594 4.09939 72.1358 3.51776 71.3743 3.51776C70.6187 3.51776 69.9951 4.09939 69.9951 4.80695C69.9951 5.5205 70.6187 6.10212 71.3743 6.10212Z" fill="#3C2769"/>
<path d="M74.1846 19.9534H76.7389V15.0245H76.817C77.1707 15.792 77.9441 16.6494 79.4312 16.6494C81.5299 16.6494 83.1668 14.9885 83.1668 11.9065C83.1668 8.74045 81.4579 7.16943 79.4373 7.16943C77.8963 7.16943 77.1587 8.08687 76.817 8.83639H76.7031V7.28937H74.1846V19.9534ZM76.685 11.8945C76.685 10.2515 77.3806 9.20214 78.6219 9.20214C79.8871 9.20214 80.5585 10.2995 80.5585 11.8945C80.5585 13.5014 79.8749 14.6167 78.6219 14.6167C77.3925 14.6167 76.685 13.5374 76.685 11.8945Z" fill="#3C2769"/>
<path d="M92.027 9.91571C91.799 8.21878 90.432 7.16943 88.1054 7.16943C85.7489 7.16943 84.196 8.26074 84.2018 10.0356C84.196 11.4148 85.0653 12.3082 86.8643 12.668L88.4593 12.9858C89.2627 13.1477 89.6286 13.4415 89.6405 13.9032C89.6286 14.4488 89.0348 14.8386 88.1415 14.8386C87.2299 14.8386 86.6244 14.4488 86.4684 13.6993L83.9561 13.8312C84.196 15.5941 85.695 16.6794 88.1354 16.6794C90.5219 16.6794 92.2308 15.4622 92.2369 13.6454C92.2308 12.3142 91.3614 11.5167 89.5744 11.1509L87.9074 10.8152C87.05 10.6293 86.7323 10.3355 86.7384 9.89172C86.7323 9.34006 87.3559 8.98029 88.1474 8.98029C89.0348 8.98029 89.5624 9.46597 89.6884 10.0596L92.027 9.91571Z" fill="#3C2769"/>
<path d="M99.2452 12.578C99.2513 13.8132 98.4056 14.4608 97.4884 14.4608C96.5229 14.4608 95.8993 13.7832 95.8932 12.6979V7.28937H93.3389V13.1536C93.345 15.3063 94.6041 16.6194 96.457 16.6194C97.8421 16.6194 98.8374 15.9059 99.2513 14.8266H99.3472V16.4995H101.8V7.28937H99.2452V12.578Z" fill="#3C2769"/>
<path d="M103.336 16.4995H105.891V10.9711C105.891 9.95168 106.538 9.27411 107.39 9.27411C108.229 9.27411 108.793 9.84974 108.793 10.7552V16.4995H111.269V10.8751C111.269 9.92169 111.815 9.27411 112.744 9.27411C113.559 9.27411 114.171 9.78379 114.171 10.8092V16.4995H116.72V10.3055C116.72 8.30872 115.532 7.16943 113.817 7.16943C112.468 7.16943 111.419 7.85901 111.041 8.91434H110.945C110.651 7.847 109.71 7.16943 108.445 7.16943C107.204 7.16943 106.262 7.82901 105.878 8.91434H105.77V7.28937H103.336V16.4995Z" fill="#3C2769"/>
</g>
<defs>
<clipPath id="clip0_11_110">
<rect width="117" height="24" fill="white"/>
</clipPath>
</defs>
</svg>

<svg width="117" height="24" fill="none" xmlns="http://www.w3.org/2000/svg"><g clip-path="url(#clip0_11_110)" fill="#3C2769"><path d="M6.095 11.726A5.863 5.863 0 106.095 0a5.863 5.863 0 000 11.726zm0 11.726a5.863 5.863 0 100-11.726 5.863 5.863 0 000 11.726zM31.189 16.5h7.86v-2.141h-5.264V4.219h-2.596V16.5zm13.187.18c2.794 0 4.533-1.913 4.533-4.75 0-2.854-1.739-4.76-4.533-4.76-2.794 0-4.533 1.906-4.533 4.76 0 2.837 1.739 4.75 4.533 4.75zm.012-1.98c-1.29 0-1.949-1.18-1.949-2.787s.66-2.795 1.949-2.795c1.265 0 1.925 1.188 1.925 2.794 0 1.607-.66 2.789-1.925 2.789zm9.825 5.445c2.632 0 4.503-1.199 4.503-3.555v-9.3H56.18v1.546h-.096c-.342-.75-1.092-1.667-2.633-1.667-2.02 0-3.73 1.571-3.73 4.708 0 3.063 1.662 4.49 3.736 4.49 1.47 0 2.29-.737 2.627-1.498h.108v1.684c0 1.266-.81 1.757-1.92 1.757-1.127 0-1.696-.491-1.906-1.049l-2.362.318c.305 1.45 1.726 2.566 4.209 2.566zm.054-5.696c-1.253 0-1.937-.995-1.937-2.585 0-1.565.672-2.662 1.937-2.662 1.24 0 1.936 1.05 1.936 2.662 0 1.625-.707 2.585-1.936 2.585zm10.136 2.231c2.794 0 4.533-1.913 4.533-4.75 0-2.854-1.739-4.76-4.533-4.76-2.794 0-4.533 1.906-4.533 4.76 0 2.837 1.739 4.75 4.533 4.75zm.012-1.98c-1.29 0-1.949-1.18-1.949-2.787s.66-2.795 1.95-2.795c1.264 0 1.924 1.188 1.924 2.794 0 1.607-.66 2.789-1.925 2.789zm5.676 1.8h2.554V7.29h-2.554v9.21zm1.283-10.398c.762 0 1.385-.582 1.385-1.295 0-.708-.623-1.29-1.385-1.29-.755 0-1.379.582-1.379 1.29 0 .713.624 1.295 1.38 1.295zm2.811 13.851h2.554v-4.928h.078c.354.767 1.127 1.624 2.614 1.624 2.099 0 3.736-1.66 3.736-4.743 0-3.166-1.71-4.737-3.73-4.737-1.54 0-2.278.918-2.62 1.667h-.114V7.29h-2.518v12.664zm2.5-8.058c0-1.643.696-2.693 1.937-2.693 1.265 0 1.936 1.098 1.936 2.693 0 1.606-.683 2.722-1.936 2.722-1.23 0-1.937-1.08-1.937-2.723zm15.342-1.979c-.228-1.697-1.595-2.747-3.922-2.747-2.356 0-3.909 1.092-3.903 2.867-.006 1.379.863 2.272 2.662 2.632l1.595.318c.804.162 1.17.455 1.181.917-.011.546-.605.936-1.499.936-.911 0-1.517-.39-1.673-1.14l-2.512.132c.24 1.763 1.739 2.848 4.18 2.848 2.386 0 4.095-1.217 4.1-3.034-.005-1.33-.875-2.128-2.662-2.494l-1.667-.336c-.857-.186-1.175-.48-1.169-.923-.006-.552.618-.912 1.41-.912.887 0 1.414.486 1.54 1.08l2.339-.144zm7.218 2.662c.006 1.235-.84 1.883-1.757 1.883-.965 0-1.589-.678-1.595-1.763V7.289H93.34v5.865c.006 2.152 1.265 3.465 3.118 3.465 1.385 0 2.38-.713 2.794-1.792h.096V16.5h2.453V7.29h-2.555v5.288zm4.091 3.922h2.555v-5.53c0-1.02.647-1.697 1.499-1.697.839 0 1.403.576 1.403 1.481V16.5h2.476v-5.625c0-.953.546-1.6 1.475-1.6.815 0 1.427.509 1.427 1.534v5.69h2.549v-6.193c0-1.997-1.188-3.137-2.903-3.137-1.349 0-2.398.69-2.776 1.745h-.096c-.294-1.067-1.235-1.745-2.5-1.745-1.241 0-2.183.66-2.567 1.745h-.108V7.29h-2.434v9.21z"/><path d="M23.684 0H11.958v11.726h11.726V0zM11.958 11.726h11.726L11.958 23.452V11.726zM31.189 16.5h7.86v-2.141h-5.264V4.219h-2.596V16.5zm13.187.18c2.794 0 4.533-1.913 4.533-4.75 0-2.854-1.739-4.76-4.533-4.76-2.794 0-4.533 1.906-4.533 4.76 0 2.837 1.739 4.75 4.533 4.75zm.012-1.98c-1.29 0-1.949-1.18-1.949-2.787s.66-2.795 1.949-2.795c1.265 0 1.925 1.188 1.925 2.794 0 1.607-.66 2.789-1.925 2.789zm9.825 5.445c2.632 0 4.503-1.199 4.503-3.555v-9.3H56.18v1.546h-.096c-.342-.75-1.092-1.667-2.633-1.667-2.02 0-3.73 1.571-3.73 4.708 0 3.063 1.662 4.49 3.736 4.49 1.47 0 2.29-.737 2.627-1.498h.108v1.684c0 1.266-.81 1.757-1.92 1.757-1.127 0-1.696-.491-1.906-1.049l-2.362.318c.305 1.45 1.726 2.566 4.209 2.566zm.054-5.696c-1.253 0-1.937-.995-1.937-2.585 0-1.565.672-2.662 1.937-2.662 1.24 0 1.936 1.05 1.936 2.662 0 1.625-.707 2.585-1.936 2.585zm10.136 2.231c2.794 0 4.533-1.913 4.533-4.75 0-2.854-1.739-4.76-4.533-4.76-2.794 0-4.533 1.906-4.533 4.76 0 2.837 1.739 4.75 4.533 4.75zm.012-1.98c-1.29 0-1.949-1.18-1.949-2.787s.66-2.795 1.95-2.795c1.264 0 1.924 1.188 1.924 2.794 0 1.607-.66 2.789-1.925 2.789zm5.676 1.8h2.554V7.29h-2.554v9.21zm1.283-10.398c.762 0 1.385-.582 1.385-1.295 0-.708-.623-1.29-1.385-1.29-.755 0-1.379.582-1.379 1.29 0 .713.624 1.295 1.38 1.295zm2.811 13.851h2.554v-4.928h.078c.354.767 1.127 1.624 2.614 1.624 2.099 0 3.736-1.66 3.736-4.743 0-3.166-1.71-4.737-3.73-4.737-1.54 0-2.278.918-2.62 1.667h-.114V7.29h-2.518v12.664zm2.5-8.058c0-1.643.696-2.693 1.937-2.693 1.265 0 1.936 1.098 1.936 2.693 0 1.606-.683 2.722-1.936 2.722-1.23 0-1.937-1.08-1.937-2.723zm15.342-1.979c-.228-1.697-1.595-2.747-3.922-2.747-2.356 0-3.909 1.092-3.903 2.867-.006 1.379.863 2.272 2.662 2.632l1.595.318c.804.162 1.17.455 1.181.917-.011.546-.605.936-1.499.936-.911 0-1.517-.39-1.673-1.14l-2.512.132c.24 1.763 1.739 2.848 4.18 2.848 2.386 0 4.095-1.217 4.1-3.034-.005-1.33-.875-2.128-2.662-2.494l-1.667-.336c-.857-.186-1.175-.48-1.169-.923-.006-.552.618-.912 1.41-.912.887 0 1.414.486 1.54 1.08l2.339-.144zm7.218 2.662c.006 1.235-.84 1.883-1.757 1.883-.965 0-1.589-.678-1.595-1.763V7.289H93.34v5.865c.006 2.152 1.265 3.465 3.118 3.465 1.385 0 2.38-.713 2.794-1.792h.096V16.5h2.453V7.29h-2.555v5.288zm4.091 3.922h2.555v-5.53c0-1.02.647-1.697 1.499-1.697.839 0 1.403.576 1.403 1.481V16.5h2.476v-5.625c0-.953.546-1.6 1.475-1.6.815 0 1.427.509 1.427 1.534v5.69h2.549v-6.193c0-1.997-1.188-3.137-2.903-3.137-1.349 0-2.398.69-2.776 1.745h-.096c-.294-1.067-1.235-1.745-2.5-1.745-1.241 0-2.183.66-2.567 1.745h-.108V7.29h-2.434v9.21z"/></g><defs><clipPath id="clip0_11_110"><path fill="#fff" d="M0 0h117v24H0z"/></clipPath></defs></svg>.0837C55.7418 8.08687 54.9922 7.16943 53.4512 7.16943C51.4306 7.16943 49.7217 8.74044 49.7217 11.8765C49.7217 14.9405 51.3825 16.3676 53.4573 16.3676C54.9263 16.3676 55.7478 15.6301 56.0837 14.8686H56.1916V16.5535C56.1916 17.8187 55.382 18.3104 54.2727 18.3104C53.1454 18.3104 52.5758 17.8187 52.3659 17.2611L50.0036 17.5789C50.3094 19.0299 51.7303 20.1452 54.2127 20.1452ZM54.2669 14.4488C53.0136 14.4488 52.33 13.4535 52.33 11.8645C52.33 10.2995 53.0016 9.20214 54.2669 9.20214C55.5079 9.20214 56.2035 10.2515 56.2035 11.8645C56.2035 13.4895 55.496 14.4488 54.2669 14.4488Z" fill="#3C2769"/>
<path d="M64.4031 16.6794C67.1974 16.6794 68.9363 14.7666 68.9363 11.9305C68.9363 9.07623 67.1974 7.16943 64.4031 7.16943C61.6088 7.16943 59.8701 9.07623 59.8701 11.9305C59.8701 14.7666 61.6088 16.6794 64.4031 16.6794ZM64.4151 14.7007C63.1259 14.7007 62.4665 13.5194 62.4665 11.9125C62.4665 10.3055 63.1259 9.11821 64.4151 9.11821C65.6803 9.11821 66.34 10.3055 66.34 11.9125C66.34 13.5194 65.6803 14.7007 64.4151 14.7007Z" fill="#3C2769"/>
<path d="M70.091 16.4995H72.6454V7.28937H70.091V16.4995ZM71.3743 6.10212C72.1358 6.10212 72.7594 5.5205 72.7594 4.80695C72.7594 4.09939 72.1358 3.51776 71.3743 3.51776C70.6187 3.51776 69.9951 4.09939 69.9951 4.80695C69.9951 5.5205 70.6187 6.10212 71.3743 6.10212Z" fill="#3C2769"/>
<path d="M74.1846 19.9534H76.7389V15.0245H76.817C77.1707 15.792 77.9441 16.6494 79.4312 16.6494C81.5299 16.6494 83.1668 14.9885 83.1668 11.9065C83.1668 8.74045 81.4579 7.16943 79.4373 7.16943C77.8963 7.16943 77.1587 8.08687 76.817 8.83639H76.7031V7.28937H74.1846V19.9534ZM76.685 11.8945C76.685 10.2515 77.3806 9.20214 78.6219 9.20214C79.8871 9.20214 80.5585 10.2995 80.5585 11.8945C80.5585 13.5014 79.8749 14.6167 78.6219 14.6167C77.3925 14.6167 76.685 13.5374 76.685 11.8945Z" fill="#3C2769"/>
<path d="M92.027 9.91571C91.799 8.21878 90.432 7.16943 88.1054 7.16943C85.7489 7.16943 84.196 8.26074 84.2018 10.0356C84.196 11.4148 85.0653 12.3082 86.8643 12.668L88.4593 12.9858C89.2627 13.1477 89.6286 13.4415 89.6405 13.9032C89.6286 14.4488 89.0348 14.8386 88.1415 14.8386C87.2299 14.8386 86.6244 14.4488 86.4684 13.6993L83.9561 13.8312C84.196 15.5941 85.695 16.6794 88.1354 16.6794C90.5219 16.6794 92.2308 15.4622 92.2369 13.6454C92.2308 12.3142 91.3614 11.5167 89.5744 11.1509L87.9074 10.8152C87.05 10.6293 86.7323 10.3355 86.7384 9.89172C86.7323 9.34006 87.3559 8.98029 88.1474 8.98029C89.0348 8.98029 89.5624 9.46597 89.6884 10.0596L92.027 9.91571Z" fill="#3C2769"/>
<path d="M99.2452 12.578C99.2513 13.8132 98.4056 14.4608 97.4884 14.4608C96.5229 14.4608 95.8993 13.7832 95.8932 12.6979V7.28937H93.3389V13.1536C93.345 15.3063 94.6041 16.6194 96.457 16.6194C97.8421 16.6194 98.8374 15.9059 99.2513 14.8266H99.3472V16.4995H101.8V7.28937H99.2452V12.578Z" fill="#3C2769"/>
<path d="M103.336 16.4995H105.891V10.9711C105.891 9.95168 106.538 9.27411 107.39 9.27411C108.229 9.27411 108.793 9.84974 108.793 10.7552V16.4995H111.269V10.8751C111.269 9.92169 111.815 9.27411 112.744 9.27411C113.559 9.27411 114.171 9.78379 114.171 10.8092V16.4995H116.72V10.3055C116.72 8.30872 115.532 7.16943 113.817 7.16943C112.468 7.16943 111.419 7.85901 111.041 8.91434H110.945C110.651 7.847 109.71 7.16943 108.445 7.16943C107.204 7.16943 106.262 7.82901 105.878 8.91434H105.77V7.28937H103.336V16.4995Z" fill="#3C2769"/>
</g>
<defs>
<clipPath id="clip0_11_110">
<rect width="117" height="24" fill="white"/>
</clipPath>
</defs>
</svg>
